src/images/logoTilted.svg

<svg width="92" height="52" fill="none" xmlns="http://www.w3.org/2000/svg"><g clip-path="url(#a)"><path d="M56.7438 37.4499c-.962 4.14-3.2447 8.1656-6.9282 10.2651a21.3891 21.3891 0 0 1-8.1547 2.1719 126.1954 126.1954 0 0 1-18.7256.8135c-5.0317-.172-10.0116.3155-14.273-2.9718-2.6918-2.0817-4.5433-5.0686-5.2126-8.4091a22.5178 22.5178 0 0 1-.149-6.2571c.2115-2.5004.6627-4.9923 1.1094-7.4622 8.5391-.6896 17.6409.656 26.2786.5304 8.6377-.1256 17.254-.5251 25.9075-1.1728.2313-.0616.5591.0065.6402.2334.0811.227.4764 8.1066-.4926 12.2587Z" fill="#DADADA" stroke="#1C383C" stroke-width="1.5" stroke-miterlimit="10"/><path d="M65.3019 21.6764a1.906 1.906 0 0 1 .0521 1.436 2.2711 2.2711 0 0 1-.8175.7641 2.2674 2.2674 0 0 1-1.0824.2805c-1.4177.1808-3.0282.2576-3.0282.2576a1.2404 1.2404 0 0 1-.3414.8797 1.233 1.233 0 0 1-.8604.3828l-57.2053.9435a1.2472 1.2472 0 0 1-.88-.3492 1.2545 1.2545 0 0 1-.3835-.8678l-.057-3.3921a1.2224 1.2224 0 0 1 .3422-.8853 1.2156 1.2156 0 0 1 .3984-.2737 1.2146 1.2146 0 0 1 .4735-.0964l7.3696-.1193a6.0736 6.0736 0 0 1 1.2603-2.1547 6.0525 6.0525 0 0 1 2.0188-1.4631 11.5465 11.5465 0 0 1 4.5777-.37c8.9729.5515 17.9879 1.9203 26.9169.7954a8.2694 8.2694 0 0 1 3.3401.0218 2.4988 2.4988 0 0 1 1.4024.8784c.3547.444.5482.9956.5487 1.5639l.018.0677 9.7335-.1585a1.2174 1.2174 0 0 1 .8833.3446 1.2245 1.2245 0 0 1 .3705.8749l.015.3275c.9639-.2567 3.8744-.7626 4.2723-.5476.3093.2053.5423.5075.6624.8593Z" fill="#F49825" stroke="#1C383C" stroke-width="1.5" stroke-miterlimit="10"/><path d="M34.1739 29.7599a3.5986 3.5986 0 0 0-1.1358 1.0726 3.6104 3.6104 0 0 0-.5757 1.4546 7.4462 7.4462 0 0 0 .2471 3.1758 10.2959 10.2959 0 0 0 1.7435 3.6782c.791 1.0322 2.0903 1.9185 3.3132 1.51a2.509 2.509 0 0 0 .9166-.6056 2.5185 2.5185 0 0 0 .5711-.9402 5.455 5.455 0 0 0 .2398-2.2388c-.129-2.3062-1.7641-9.0271-5.3198-7.1066ZM24.0333 30.0159a3.505 3.505 0 0 0-1.5113 1.209 3.523 3.523 0 0 0-.6421 1.8293 7.3387 7.3387 0 0 0 .8913 3.8121 7.771 7.771 0 0 0 2.1127 2.855 3.8054 3.8054 0 0 0 1.5905.7845 3.79 3.79 0 0 0 1.7712-.0228 2.2889 2.2889 0 0 0 1.1378-.7277 3.3354 3.3354 0 0 0 .5472-2.0927c-.0368-2.7347-1.9011-8.9596-5.8973-7.6467Z" fill="#fff" stroke="#1C383C" stroke-width="1.5" stroke-miterlimit="10"/><path d="M24.6111 34.3105a11.3017 11.3017 0 0 0 1.2886 2.4738 4.9176 4.9176 0 0 0 1.9316 1.9814.896.896 0 0 0 .6549.0949.8467.8467 0 0 0 .3308-.2892.8512.8512 0 0 0 .1419-.4167 8.158 8.158 0 0 0-.2804-4.1922 4.2633 4.2633 0 0 0-1.2953-1.9956c-.5099-.4027-1.9286-1.0398-2.643-.4664-.7144.5735-.3228 2.1987-.1291 2.81ZM35.4638 31.4932a2.3552 2.3552 0 0 0-.2254 1.6342 10.116 10.116 0 0 0 2.4603 5.3619c.1897.2084.5369.4267.7514.2245a.5187.5187 0 0 0 .1316-.2422 10.0357 10.0357 0 0 0-.3599-5.2274c-.2755-.8794-1.5487-3.6058-2.758-1.751Z" fill="#1C383C" stroke="#1C383C" stroke-width="1.5" stroke-miterlimit="10"/><path d="M30.7736 43.7352a4.7188 4.7188 0 0 0 .72 1.5792 2.002 2.002 0 0 0 .6528.5855c.258.1444.5447.2296.8393.2495a1.8188 1.8188 0 0 0 .826-.1955 1.823 1.823 0 0 0 .648-.5492c.322-.488.479-1.0671.4477-1.652M7.1178 33.0926c-.2332 2.6513-.467 5.4166.538 7.8727a10.786 10.786 0 0 0 1.0422 1.8973 9.4905 9.4905 0 0 0 3.6148 3.2628M44.1661 20.9981a82.5603 82.5603 0 0 1-14.6134.2465M20.8643 21.2183a1.4336 1.4336 0 0 1 .5565-.0034l3.0984.3546" stroke="#1C383C" stroke-width="1.5" stroke-miterlimit="10"/><path d="M64.5066 22.5172a3.2281 3.2281 0 0 0 1.7248-.9113 3.2456 3.2456 0 0 0 .8887-1.7407 7.5392 7.5392 0 0 0-.4588-3.913 24.686 24.686 0 0 0-1.5163-3.5928c-.5087-1.0007-1.1072-2.0816-.8179-3.1624s1.5062-1.8214 2.6334-2.3218a126.7589 126.7589 0 0 1 13.0873-5.204c1.6459-.5304 2.8928.2402 3.99 1.4611a24.1237 24.1237 0 0 1 4.5387 7.4958 10.9313 10.9313 0 0 1 .6882 6.495 3.138 3.138 0 0 1-.6116 1.4191 3.1238 3.1238 0 0 1-1.2138.9527c-1.1272.6005-2.3042 1.1209-3.4713 1.6313l-6.9127 3.0023c-1.1671.5104-2.9925 1.8114-4.2594 1.0007a6.6242 6.6242 0 0 1-.9775-1.1108 4.9814 4.9814 0 0 0-3.1023-1.5212 25.2324 25.2324 0 0 0-4.2095.02Z" fill="#fff" stroke="#1C383C" stroke-width="1.5" stroke-miterlimit="10"/><path d="M74.1023 15.6721a3.8925 3.8925 0 0 1-1.5339-1.2036 3.9097 3.9097 0 0 1-.7603-1.7987 2.6185 2.6185 0 0 1 .462-1.8596 2.603 2.603 0 0 1 1.6028-1.0426 3.7144 3.7144 0 0 1 2.5437 1.0007 2.8804 2.8804 0 0 1 .1914-1.9336 2.8674 2.8674 0 0 1 1.3746-1.369 2.9836 2.9836 0 0 1 2.6707.3382c.3878.2618.7092.611.9384 1.0198a3.01 3.01 0 0 1 .381 1.3342 16.7917 16.7917 0 0 1-.4489 3.4326 22.1962 22.1962 0 0 1-1.1372 4.2433c-.1695.4403-4.7281-1.3711-5.167-1.5712-.4389-.2002-.7582-.3903-1.1173-.5905Z" fill="#E30613"/></g><defs><clipPath id="a"><path fill="#fff" d="M0 0h92v52H0z"/></clipPath></defs></svg>

<svg width="92" height="52" viewBox="0 0 92 52" fill="none" xmlns="http://www.w3.org/2000/svg">
<g clip-path="url(#clip0_521_732)">
<path d="M56.7438 37.4499C55.7818 41.5899 53.4991 45.6155 49.8156 47.715C47.2684 48.9734 44.4966 49.7116 41.6609 49.8869C35.4485 50.6218 29.1894 50.8938 22.9353 50.7004C17.9036 50.5284 12.9237 51.0159 8.66228 47.7286C5.97049 45.6469 4.11903 42.66 3.44973 39.3195C3.10902 37.2506 3.05886 35.1444 3.30072 33.0624C3.5122 30.562 3.96341 28.0701 4.41013 25.6002C12.9492 24.9106 22.051 26.2562 30.6887 26.1306C39.3264 26.005 47.9427 25.6055 56.5962 24.9578C56.8275 24.8962 57.1553 24.9643 57.2364 25.1912C57.3175 25.4182 57.7128 33.2978 56.7438 37.4499Z" fill="#DADADA" stroke="#1C383C" stroke-width="1.5" stroke-miterlimit="10"/>
<path d="M65.3019 21.6764C65.5059 22.1301 65.5247 22.6456 65.354 23.1124C65.1493 23.4315 64.8683 23.6941 64.5365 23.8765C64.2048 24.0589 63.8327 24.1553 63.4541 24.157C62.0364 24.3378 60.4259 24.4146 60.4259 24.4146C60.4323 24.7417 60.3096 25.0579 60.0845 25.2943C59.8594 25.5308 59.5502 25.6684 59.2241 25.6771L2.01876 26.6206C1.69126 26.6245 1.37517 26.4991 1.13876 26.2714C0.902355 26.0437 0.764604 25.732 0.755266 25.4036L0.698302 22.0115C0.693405 21.8484 0.721165 21.686 0.779941 21.534C0.838718 21.3819 0.927317 21.2433 1.0405 21.1262C1.15369 21.0092 1.28916 20.9161 1.43891 20.8525C1.58866 20.789 1.74965 20.7562 1.91236 20.7561L9.28202 20.6368C9.54871 19.8385 9.97787 19.1048 10.5423 18.4821C11.1068 17.8593 11.7942 17.3611 12.5611 17.019C14.0466 16.5904 15.6031 16.4646 17.1388 16.649C26.1117 17.2005 35.1267 18.5693 44.0557 17.4444C45.1586 17.2244 46.295 17.2318 47.3958 17.4662C47.9489 17.5909 48.4436 17.9007 48.7982 18.3446C49.1529 18.7886 49.3464 19.3402 49.3469 19.9085L49.3649 19.9762L59.0984 19.8177C59.261 19.8131 59.423 19.8412 59.5747 19.9003C59.7264 19.9595 59.8648 20.0486 59.9817 20.1623C60.0986 20.276 60.1916 20.412 60.2553 20.5623C60.3189 20.7126 60.3519 20.8741 60.3522 21.0372L60.3672 21.3647C61.3311 21.108 64.2416 20.6021 64.6395 20.8171C64.9488 21.0224 65.1818 21.3246 65.3019 21.6764Z" fill="#F49825" stroke="#1C383C" stroke-width="1.5" stroke-miterlimit="10"/>
<path d="M34.1739 29.7599C33.7215 30.0298 33.3338 30.3959 33.0381 30.8325C32.7423 31.2692 32.5458 31.7657 32.4624 32.2871C32.3147 33.3508 32.399 34.4343 32.7095 35.4629C33.0402 36.793 33.633 38.0436 34.453 39.1411C35.244 40.1733 36.5433 41.0596 37.7662 40.6511C38.1126 40.5195 38.4256 40.3127 38.6828 40.0455C38.94 39.7782 39.135 39.4572 39.2539 39.1053C39.4886 38.3842 39.5703 37.6217 39.4937 36.8665C39.3647 34.5603 37.7296 27.8394 34.1739 29.7599Z" fill="white" stroke="#1C383C" stroke-width="1.5" stroke-miterlimit="10"/>
<path d="M24.0333 30.0159C23.4263 30.2688 22.9027 30.6878 22.522 31.2249C22.1413 31.7621 21.9188 32.3959 21.8799 33.0542C21.8263 34.382 22.1344 35.6998 22.7712 36.8663C23.2459 37.9687 23.9691 38.946 24.8839 39.7213C25.3453 40.1046 25.8902 40.3734 26.4744 40.5058C27.0586 40.6382 27.6654 40.6304 28.2456 40.483C28.6892 40.3605 29.0857 40.107 29.3834 39.7553C29.793 39.1386 29.9856 38.4022 29.9306 37.6626C29.8938 34.9279 28.0295 28.703 24.0333 30.0159Z" fill="white" stroke="#1C383C" stroke-width="1.5" stroke-miterlimit="10"/>
<path d="M24.6111 34.3105C24.9369 35.1852 25.3697 36.0162 25.8997 36.7843C26.3411 37.6165 27.0116 38.3043 27.8313 38.7657C28.0297 38.8798 28.264 38.9137 28.4862 38.8606C28.62 38.795 28.734 38.6953 28.817 38.5714C28.9 38.4474 28.9489 38.3038 28.9589 38.1547C29.2331 36.7574 29.1364 35.3118 28.6785 33.9625C28.4447 33.1876 27.9953 32.4953 27.3832 31.9669C26.8733 31.5642 25.4546 30.9271 24.7402 31.5005C24.0258 32.074 24.4174 33.6992 24.6111 34.3105Z" fill="#1C383C" stroke="#1C383C" stroke-width="1.5" stroke-miterlimit="10"/>
<path d="M35.4638 31.4932C35.1942 31.9924 35.1141 32.5729 35.2384 33.1274C35.5077 35.1198 36.3645 36.987 37.6987 38.4893C37.8884 38.6977 38.2356 38.916 38.4501 38.7138C38.515 38.6465 38.5604 38.5628 38.5817 38.4716C38.9268 36.7288 38.8026 34.9245 38.2218 33.2442C37.9463 32.3648 36.6731 29.6384 35.4638 31.4932Z" fill="#1C383C" stroke="#1C383C" stroke-width="1.5" stroke-miterlimit="10"/>
<path d="M30.7736 43.7352C30.9139 44.3016 31.1581 44.8372 31.4936 45.3144C31.6654 45.5555 31.8883 45.7555 32.1464 45.8999C32.4044 46.0443 32.6911 46.1295 32.9857 46.1494C33.2726 46.1503 33.5556 46.0833 33.8117 45.9539C34.0678 45.8245 34.2898 45.6364 34.4597 45.4047C34.7817 44.9167 34.9387 44.3376 34.9074 43.7527" stroke="#1C383C" stroke-width="1.5" stroke-miterlimit="10"/>
<path d="M7.11785 33.0926C6.88459 35.7439 6.65074 38.5092 7.65585 40.9653C7.93877 41.6312 8.2879 42.2668 8.69795 42.8626C9.5995 44.2469 10.8456 45.3716 12.3128 46.1254" stroke="#1C383C" stroke-width="1.5" stroke-miterlimit="10"/>
<path d="M44.1661 20.9981C39.3124 21.5121 34.4223 21.5946 29.5527 21.2446" stroke="#1C383C" stroke-width="1.5" stroke-miterlimit="10"/>
<path d="M20.8643 21.2183C21.0477 21.1808 21.2368 21.1797 21.4208 21.2149L24.5192 21.5695" stroke="#1C383C" stroke-width="1.5" stroke-miterlimit="10"/>
<path d="M64.5066 22.5172C65.1614 22.3988 65.7637 22.0805 66.2314 21.6059C66.6992 21.1313 67.0095 20.5234 67.1201 19.8652C67.3167 18.5431 67.1583 17.1924 66.6613 15.9522C66.2513 14.7163 65.7443 13.5149 65.145 12.3594C64.6363 11.3587 64.0378 10.2778 64.3271 9.19699C64.6164 8.11616 65.8333 7.37559 66.9605 6.8752C71.2237 4.89911 75.5928 3.16178 80.0478 1.6712C81.6937 1.14079 82.9406 1.91138 84.0378 3.13232C85.9948 5.33149 87.5331 7.87211 88.5765 10.6281C89.4623 12.6716 89.7026 14.9384 89.2647 17.1231C89.1822 17.64 88.9719 18.1279 88.6531 18.5422C88.3342 18.9565 87.9169 19.2841 87.4393 19.4949C86.3121 20.0954 85.1351 20.6158 83.968 21.1262L77.0553 24.1285C75.8882 24.6389 74.0628 25.9399 72.7959 25.1292C72.4297 24.7967 72.1018 24.4241 71.8184 24.0184C70.9978 23.1569 69.8977 22.6175 68.7161 22.4972C67.3148 22.3866 65.9068 22.3933 64.5066 22.5172Z" fill="white" stroke="#1C383C" stroke-width="1.5" stroke-miterlimit="10"/>
<path d="M74.1023 15.6721C73.4976 15.4078 72.9697 14.9937 72.5684 14.4685C72.1671 13.9433 71.9054 13.3243 71.8081 12.6698C71.7217 12.0136 71.8868 11.3489 72.2701 10.8102C72.6534 10.2715 73.2263 9.8988 73.8729 9.76756C74.8166 9.76544 75.7259 10.1232 76.4166 10.7683C76.2545 10.121 76.3222 9.43733 76.608 8.83466C76.8938 8.23199 77.3798 7.74799 77.9826 7.46579C78.4232 7.30897 78.8942 7.25788 79.358 7.3166C79.8218 7.37532 80.2654 7.54222 80.6533 7.80393C81.0411 8.06565 81.3625 8.41488 81.5917 8.82366C81.8208 9.23243 81.9513 9.68937 81.9727 10.1579C81.9417 11.3146 81.7913 12.4649 81.5238 13.5905C81.2859 15.0393 80.905 16.4607 80.3866 17.8338C80.2171 18.2741 75.6585 16.4627 75.2196 16.2626C74.7807 16.0624 74.4614 15.8723 74.1023 15.6721Z" fill="#E30613"/>
</g>
<defs>
<clipPath id="clip0_521_732">
<rect width="92" height="52" fill="white"/>
</clipPath>
</defs>
</svg>
